X:1
T:Weary Of The Darning
M:6/8
L:1/8
K:G
 D2 E D2 C| B,D G- G3| CE A- A2 G| FA d- d2 E| D2 E D2 C| B,D G- G2 G|\
 E c2 B2 G| A3 G3| E2 F G2 E| ^DF B- B2 A| G E2 D2 C| B, E2 E3| D2 E F2 E|\
 DF A- A3| A2 B A2 G| F2 E D2 E| D2 E D2 C| B,D G- G3| CE A- A2 G|\
 FA d- d2 D| D2 E D2 C| B,2 D G2 G| E2 c B2 G| A3 G3|

